assets/images/cristiansoft-logo.svg

<svg width="140" height="32" viewBox="0 0 140 32" fill="none" xmlns="http://www.w3.org/2000/svg">
<path d="M37.9 21.28C36.38 21.28 35.1133 20.7733 34.1 19.76C33.1 18.7467 32.6 17.4933 32.6 16C32.6 14.5067 33.1 13.2533 34.1 12.24C35.1133 11.2267 36.38 10.72 37.9 10.72C38.86 10.72 39.74 10.9533 40.54 11.42C41.3533 11.8867 41.98 12.5067 42.42 13.28L39.8 14.8C39.44 14.0533 38.7933 13.68 37.86 13.68C37.2067 13.68 36.6667 13.9 36.24 14.34C35.8133 14.7667 35.6 15.32 35.6 16C35.6 16.68 35.8133 17.24 36.24 17.68C36.6667 18.1067 37.2067 18.32 37.86 18.32C38.8067 18.32 39.4533 17.9467 39.8 17.2L42.42 18.7C41.98 19.4867 41.36 20.1133 40.56 20.58C39.76 21.0467 38.8733 21.28 37.9 21.28ZM46.725 12.78C46.9117 12.14 47.285 11.6533 47.845 11.32C48.4183 10.9733 49.045 10.8 49.725 10.8V14.2C48.9917 14.08 48.305 14.2067 47.665 14.58C47.0383 14.94 46.725 15.5733 46.725 16.48V21H43.725V11H46.725V12.78ZM53.8873 9.6C53.5407 9.94667 53.1207 10.12 52.6273 10.12C52.134 10.12 51.7073 9.94667 51.3473 9.6C51.0007 9.24 50.8273 8.81333 50.8273 8.32C50.8273 7.82667 51.0007 7.40667 51.3473 7.06C51.7073 6.7 52.134 6.52 52.6273 6.52C53.1207 6.52 53.5407 6.7 53.8873 7.06C54.2473 7.40667 54.4273 7.82667 54.4273 8.32C54.4273 8.81333 54.2473 9.24 53.8873 9.6ZM51.1273 21V11H54.1273V21H51.1273ZM59.065 13.92C59.065 14.12 59.2317 14.2867 59.565 14.42C59.9117 14.54 60.325 14.6667 60.805 14.8C61.285 14.92 61.765 15.08 62.245 15.28C62.725 15.48 63.1317 15.8133 63.465 16.28C63.8117 16.7333 63.985 17.3067 63.985 18C63.985 19.08 63.585 19.9 62.785 20.46C61.985 21.0067 60.9983 21.28 59.825 21.28C57.7183 21.28 56.285 20.4867 55.525 18.9L58.125 17.42C58.3917 18.2067 58.9583 18.6 59.825 18.6C60.545 18.6 60.905 18.3933 60.905 17.98C60.905 17.78 60.7317 17.6133 60.385 17.48C60.0517 17.3467 59.645 17.22 59.165 17.1C58.685 16.9667 58.205 16.8 57.725 16.6C57.245 16.3867 56.8317 16.06 56.485 15.62C56.1517 15.18 55.985 14.64 55.985 14C55.985 12.96 56.3583 12.1533 57.105 11.58C57.865 11.0067 58.7983 10.72 59.905 10.72C60.7317 10.72 61.485 10.9067 62.165 11.28C62.845 11.64 63.3917 12.1667 63.805 12.86L61.245 14.24C60.925 13.6533 60.4783 13.36 59.905 13.36C59.345 13.36 59.065 13.5467 59.065 13.92ZM71.0498 13.88H68.9898V17.42C68.9898 17.82 69.1498 18.0733 69.4698 18.18C69.7898 18.2867 70.3165 18.32 71.0498 18.28V21C69.1432 21.2 67.8232 21.02 67.0898 20.46C66.3565 19.8867 65.9898 18.8733 65.9898 17.42V13.88H64.3898V11H65.9898V9.1L68.9898 8.2V11H71.0498V13.88ZM75.7038 9.6C75.3571 9.94667 74.9371 10.12 74.4438 10.12C73.9504 10.12 73.5238 9.94667 73.1637 9.6C72.8171 9.24 72.6438 8.81333 72.6438 8.32C72.6438 7.82667 72.8171 7.40667 73.1637 7.06C73.5238 6.7 73.9504 6.52 74.4438 6.52C74.9371 6.52 75.3571 6.7 75.7038 7.06C76.0638 7.40667 76.2438 7.82667 76.2438 8.32C76.2438 8.81333 76.0638 9.24 75.7038 9.6ZM72.9438 21V11H75.9438V21H72.9438ZM85.8991 11H88.8991V21H85.8991V20.06C85.1924 20.8733 84.1991 21.28 82.9191 21.28C81.5991 21.28 80.4724 20.7733 79.5391 19.76C78.6057 18.7333 78.1391 17.48 78.1391 16C78.1391 14.52 78.6057 13.2733 79.5391 12.26C80.4724 11.2333 81.5991 10.72 82.9191 10.72C84.1991 10.72 85.1924 11.1267 85.8991 11.94V11ZM81.7991 17.78C82.2391 18.22 82.8124 18.44 83.5191 18.44C84.2257 18.44 84.7991 18.22 85.2391 17.78C85.6791 17.34 85.8991 16.7467 85.8991 16C85.8991 15.2533 85.6791 14.66 85.2391 14.22C84.7991 13.78 84.2257 13.56 83.5191 13.56C82.8124 13.56 82.2391 13.78 81.7991 14.22C81.3591 14.66 81.1391 15.2533 81.1391 16C81.1391 16.7467 81.3591 17.34 81.7991 17.78ZM97.46 10.72C98.5267 10.72 99.4133 11.0867 100.12 11.82C100.84 12.5533 101.2 13.5667 101.2 14.86V21H98.2V15.3C98.2 14.7133 98.0333 14.2667 97.7 13.96C97.38 13.64 96.9667 13.48 96.46 13.48C95.8867 13.48 95.4333 13.6533 95.1 14C94.7667 14.3467 94.6 14.86 94.6 15.54V21H91.6V11H94.6V11.94C95.2 11.1267 96.1533 10.72 97.46 10.72ZM106.6 13.92C106.6 14.12 106.767 14.2867 107.1 14.42C107.447 14.54 107.86 14.6667 108.34 14.8C108.82 14.92 109.3 15.08 109.78 15.28C110.26 15.48 110.667 15.8133 111 16.28C111.347 16.7333 111.52 17.3067 111.52 18C111.52 19.08 111.12 19.9 110.32 20.46C109.52 21.0067 108.533 21.28 107.36 21.28C105.253 21.28 103.82 20.4867 103.06 18.9L105.66 17.42C105.927 18.2067 106.493 18.6 107.36 18.6C108.08 18.6 108.44 18.3933 108.44 17.98C108.44 17.78 108.267 17.6133 107.92 17.48C107.587 17.3467 107.18 17.22 106.7 17.1C106.22 16.9667 105.74 16.8 105.26 16.6C104.78 16.3867 104.367 16.06 104.02 15.62C103.687 15.18 103.52 14.64 103.52 14C103.52 12.96 103.893 12.1533 104.64 11.58C105.4 11.0067 106.333 10.72 107.44 10.72C108.267 10.72 109.02 10.9067 109.7 11.28C110.38 11.64 110.927 12.1667 111.34 12.86L108.78 14.24C108.46 13.6533 108.013 13.36 107.44 13.36C106.88 13.36 106.6 13.5467 106.6 13.92ZM121.776 19.76C120.749 20.7733 119.496 21.28 118.016 21.28C116.536 21.28 115.282 20.7733 114.256 19.76C113.229 18.7333 112.716 17.48 112.716 16C112.716 14.52 113.229 13.2733 114.256 12.26C115.282 11.2333 116.536 10.72 118.016 10.72C119.496 10.72 120.749 11.2333 121.776 12.26C122.802 13.2733 123.316 14.52 123.316 16C123.316 17.48 122.802 18.7333 121.776 19.76ZM116.376 17.7C116.816 18.14 117.362 18.36 118.016 18.36C118.669 18.36 119.216 18.14 119.656 17.7C120.096 17.26 120.316 16.6933 120.316 16C120.316 15.3067 120.096 14.74 119.656 14.3C119.216 13.86 118.669 13.64 118.016 13.64C117.362 13.64 116.816 13.86 116.376 14.3C115.936 14.74 115.716 15.3067 115.716 16C115.716 16.6933 115.936 17.26 116.376 17.7ZM130.913 9.6C129.673 9.49333 129.053 9.96 129.053 11H130.913V13.88H129.053V21H126.053V13.88H124.713V11H126.053C126.053 9.56 126.459 8.46667 127.273 7.72C128.086 6.96 129.299 6.62667 130.913 6.72V9.6ZM138.967 13.88H136.907V17.42C136.907 17.82 137.067 18.0733 137.387 18.18C137.707 18.2867 138.234 18.32 138.967 18.28V21C137.06 21.2 135.74 21.02 135.007 20.46C134.274 19.8867 133.907 18.8733 133.907 17.42V13.88H132.307V11H133.907V9.1L136.907 8.2V11H138.967V13.88Z" fill="#0D0D12"/>
<path d="M10.1338 20.7762C9.51317 20.1496 9.02075 19.4051 8.68475 18.5854C8.34876 17.7657 8.17581 16.887 8.17581 15.9995C8.17581 15.1121 8.34876 14.2333 8.68475 13.4137C9.02075 12.594 9.51317 11.8495 10.1338 11.2229V11.2229C10.6221 10.7285 10.8964 10.058 10.8964 9.35883C10.8964 8.65967 10.6221 7.98915 10.1338 7.49477C9.89206 7.24998 9.60505 7.0558 9.28917 6.92332C8.9733 6.79084 8.63474 6.72266 8.29284 6.72266C7.60233 6.72266 6.94011 7.0004 6.45185 7.49477C4.24857 9.76454 3.00967 12.817 3 15.9995C3.03126 19.1777 4.26697 22.2223 6.45185 24.5043C6.94011 24.9987 7.60233 25.2764 8.29284 25.2764C8.63474 25.2764 8.9733 25.2082 9.28917 25.0758C9.60505 24.9433 9.89206 24.7491 10.1338 24.5043C10.3756 24.2595 10.5674 23.9689 10.6982 23.6491C10.829 23.3292 10.8964 22.9864 10.8964 22.6402C10.8964 22.2941 10.829 21.9513 10.6982 21.6314C10.5674 21.3116 10.3756 21.021 10.1338 20.7762V20.7762Z" fill="#5FCEA4"/>
<path d="M10.1335 11.2232C10.7524 10.5948 11.4876 10.0962 12.2972 9.75599C13.1067 9.41579 13.9746 9.24067 14.851 9.24067C15.7275 9.24067 16.5954 9.41579 17.4049 9.75599C18.2144 10.0962 18.9497 10.5948 19.5686 11.2232C20.0568 11.7176 20.719 11.9953 21.4095 11.9953C22.1 11.9953 22.7623 11.7176 23.2505 11.2232C23.7388 10.7288 24.0131 10.0583 24.0131 9.35916C24.0131 8.66001 23.7388 7.98949 23.2505 7.49511C21.0089 5.26422 17.9942 4.00979 14.851 4C11.7122 4.03165 8.7053 5.28285 6.45153 7.49511C5.96327 7.98949 5.68896 8.66001 5.68896 9.35916C5.68896 10.0583 5.96327 10.7288 6.45153 11.2232C6.93979 11.7176 7.60201 11.9953 8.29251 11.9953C8.98302 11.9953 9.64524 11.7176 10.1335 11.2232Z" fill="#F8DB53"/>
<path d="M19.5686 20.777C18.9497 21.4054 18.2144 21.904 17.4049 22.2442C16.5954 22.5844 15.7275 22.7596 14.851 22.7596C13.9746 22.7596 13.1067 22.5844 12.2972 22.2442C11.4876 21.904 10.7524 21.4054 10.1335 20.777V20.777C9.64524 20.2826 8.98302 20.0049 8.29251 20.0049C7.60201 20.0049 6.93979 20.2826 6.45153 20.777C5.96327 21.2714 5.68896 21.9419 5.68896 22.6411C5.68896 23.3402 5.96327 24.0107 6.45153 24.5051C8.6932 26.736 11.7079 27.9904 14.851 28.0002C17.9899 27.9686 20.9968 26.7174 23.2505 24.5051C23.7388 24.0107 24.0131 23.3402 24.0131 22.6411C24.0131 21.9419 23.7388 21.2714 23.2505 20.777C22.7623 20.2826 22.1001 20.0049 21.4095 20.0049C20.719 20.0049 20.0568 20.2826 19.5686 20.777V20.777Z" fill="#3E7BE4"/>
<circle cx="15" cy="16" r="3" fill="#3E7BE4"/>
</svg>

<svg width="140" height="32" fill="none" xmlns="http://www.w3.org/2000/svg"><path d="M37.9 21.28A5.16 5.16 0 0 1 32.6 16a5.14 5.14 0 0 1 5.3-5.28 5.14 5.14 0 0 1 4.52 2.56L39.8 14.8c-.36-.75-1-1.12-1.94-1.12-.65 0-1.2.22-1.62.66-.43.43-.64.98-.64 1.66 0 .68.21 1.24.64 1.68.43.43.97.64 1.62.64.95 0 1.6-.37 1.94-1.12l2.62 1.5a5.18 5.18 0 0 1-4.52 2.58Zm8.83-8.5c.18-.64.55-1.13 1.12-1.46.57-.35 1.2-.52 1.88-.52v3.4a3 3 0 0 0-2.06.38c-.63.36-.95 1-.95 1.9V21h-3V11h3v1.78Zm7.16-3.18c-.35.35-.77.52-1.26.52a1.78 1.78 0 0 1-1.8-1.8c0-.5.17-.91.52-1.26.36-.36.78-.54 1.28-.54s.91.18 1.26.54c.36.35.54.77.54 1.26 0 .5-.18.92-.54 1.28ZM51.13 21V11h3v10h-3Zm7.93-7.08c0 .2.17.37.5.5.35.12.77.25 1.24.38.48.12.97.28 1.45.48.48.2.88.53 1.22 1 .34.45.52 1.03.52 1.72 0 1.08-.4 1.9-1.2 2.46-.8.55-1.8.82-2.96.82-2.11 0-3.55-.8-4.3-2.38l2.6-1.48c.26.79.83 1.18 1.7 1.18.72 0 1.08-.2 1.08-.62 0-.2-.18-.37-.52-.5a9.61 9.61 0 0 0-1.23-.38c-.47-.13-.95-.3-1.43-.5-.48-.21-.9-.54-1.24-.98a2.6 2.6 0 0 1-.5-1.62c0-1.04.37-1.85 1.11-2.42.77-.57 1.7-.86 2.8-.86.83 0 1.59.19 2.27.56.67.36 1.22.89 1.63 1.58l-2.55 1.38c-.33-.59-.77-.88-1.34-.88-.56 0-.84.19-.84.56Zm11.99-.04h-2.06v3.54c0 .4.16.65.48.76.32.1.85.14 1.58.1V21c-1.9.2-3.23.02-3.96-.54-.73-.57-1.1-1.59-1.1-3.04v-3.54h-1.6V11h1.6V9.1l3-.9V11h2.06v2.88ZM75.7 9.6c-.34.35-.76.52-1.26.52a1.78 1.78 0 0 1-1.8-1.8c0-.5.18-.91.52-1.26.36-.36.79-.54 1.28-.54.5 0 .92.18 1.26.54.36.35.54.77.54 1.26 0 .5-.18.92-.54 1.28ZM72.94 21V11h3v10h-3ZM85.9 11h3v10h-3v-.94c-.7.81-1.7 1.22-2.98 1.22-1.32 0-2.45-.5-3.38-1.52a5.39 5.39 0 0 1-1.4-3.76c0-1.48.47-2.73 1.4-3.74a4.4 4.4 0 0 1 3.38-1.54c1.28 0 2.27.4 2.98 1.22V11Zm-4.1 6.78c.44.44 1.01.66 1.72.66.7 0 1.28-.22 1.72-.66A2.4 2.4 0 0 0 85.9 16a2.4 2.4 0 0 0-.66-1.78 2.33 2.33 0 0 0-1.72-.66c-.7 0-1.28.22-1.72.66a2.4 2.4 0 0 0-.66 1.78c0 .75.22 1.34.66 1.78Zm15.66-7.06c1.07 0 1.95.37 2.66 1.1a4.15 4.15 0 0 1 1.08 3.04V21h-3v-5.7c0-.59-.17-1.03-.5-1.34a1.68 1.68 0 0 0-1.24-.48 1.8 1.8 0 0 0-1.36.52c-.33.35-.5.86-.5 1.54V21h-3V11h3v.94c.6-.81 1.55-1.22 2.86-1.22Zm9.14 3.2c0 .2.17.37.5.5.35.12.76.25 1.24.38.48.12.96.28 1.44.48.48.2.89.53 1.22 1 .35.45.52 1.03.52 1.72 0 1.08-.4 1.9-1.2 2.46-.8.55-1.79.82-2.96.82-2.1 0-3.54-.8-4.3-2.38l2.6-1.48c.27.79.83 1.18 1.7 1.18.72 0 1.08-.2 1.08-.62 0-.2-.17-.37-.52-.5a9.6 9.6 0 0 0-1.22-.38c-.48-.13-.96-.3-1.44-.5-.48-.21-.9-.54-1.24-.98a2.6 2.6 0 0 1-.5-1.62c0-1.04.37-1.85 1.12-2.42.76-.57 1.7-.86 2.8-.86.83 0 1.58.19 2.26.56.68.36 1.23.89 1.64 1.58l-2.56 1.38c-.32-.59-.77-.88-1.34-.88-.56 0-.84.19-.84.56Zm15.18 5.84a5.15 5.15 0 0 1-3.76 1.52c-1.48 0-2.74-.5-3.76-1.52a5.11 5.11 0 0 1-1.54-3.76c0-1.48.5-2.73 1.54-3.74a5.11 5.11 0 0 1 3.76-1.54c1.48 0 2.73.51 3.76 1.54a5.05 5.05 0 0 1 1.54 3.74c0 1.48-.52 2.73-1.54 3.76Zm-5.4-2.06c.44.44.98.66 1.64.66.65 0 1.2-.22 1.64-.66.44-.44.66-1 .66-1.7s-.22-1.26-.66-1.7a2.23 2.23 0 0 0-1.64-.66c-.66 0-1.2.22-1.64.66-.44.44-.66 1-.66 1.7s.22 1.26.66 1.7Zm14.53-8.1c-1.24-.1-1.86.36-1.86 1.4h1.86v2.88h-1.86V21h-3v-7.12h-1.34V11h1.34c0-1.44.4-2.53 1.22-3.28.82-.76 2.03-1.1 3.64-1V9.6Zm8.06 4.28h-2.06v3.54c0 .4.16.65.48.76.32.1.84.14 1.58.1V21c-1.91.2-3.23.02-3.96-.54-.74-.57-1.1-1.59-1.1-3.04v-3.54h-1.6V11h1.6V9.1l3-.9V11h2.06v2.88Z" fill="#0D0D12"/><path d="M10.13 20.78a6.75 6.75 0 0 1-1.45-7.37c.34-.82.83-1.56 1.45-2.19a2.65 2.65 0 0 0-.84-4.3 2.58 2.58 0 0 0-2.84.57A12.27 12.27 0 0 0 3 16a12.48 12.48 0 0 0 3.45 8.51 2.59 2.59 0 0 0 4.25-.85 2.67 2.67 0 0 0-.57-2.87Z" fill="#5FCEA4"/><path d="M10.13 11.22a6.66 6.66 0 0 1 7.27-1.46c.81.34 1.55.83 2.17 1.46a2.59 2.59 0 0 0 3.68 0 2.65 2.65 0 0 0 0-3.72 11.96 11.96 0 0 0-8.4-3.5 12.16 12.16 0 0 0-8.4 3.5 2.65 2.65 0 0 0 0 3.72 2.59 2.59 0 0 0 3.68 0Z" fill="#F8DB53"/><path d="M19.57 20.78a6.66 6.66 0 0 1-7.27 1.46 6.66 6.66 0 0 1-2.17-1.46 2.59 2.59 0 0 0-3.68 0 2.65 2.65 0 0 0 0 3.73 11.96 11.96 0 0 0 8.4 3.49 12.16 12.16 0 0 0 8.4-3.5 2.65 2.65 0 0 0 0-3.72 2.59 2.59 0 0 0-3.68 0Z" fill="#3E7BE4"/><circle cx="15" cy="16" r="3" fill="#3E7BE4"/></svg>
